X:474
T: "Gang zur Liebsten"
N: Z1154
O: Europa, Mitteleuropa, Deutschland, Niederrhein
R: Liebes - Lied
M: 2/4
L: 1/16
K: A
E2 | A3B=c2BA | B2BAG3
E | A2AB=c2BA | B2B2E2
=cd | e2dde2=fe | d3=cd2
ed | =c3Bcdec | B2AAB2
=cB | A4G4 | A4z2

